src/Assets/Icons/ResidentIcon2.svg

<svg width="41" height="34" viewBox="0 0 41 34" fill="none" xmlns="http://www.w3.org/2000/svg">
<path d="M38.4418 29.0574L34.1244 21.5904L37.7415 15.3436L39.8522 11.6912L37.8986 8.3127L35.3793 3.94456L33.2411 0.254195L29.0124 0.246136L21.7768 0.2276L17.6762 0.21954L10.4462 0.202616L6.20455 0.192139L8.35881 3.91715L13.0187 11.9765L3.16377 29.0243L0.80481 33.1056H5.16812L11.9379 33.1112L16.1763 33.1169L20.2866 25.6273L24.7192 33.1225L29.4847 33.1281L36.7075 33.133L40.8048 33.1386L38.4418 29.0574ZM31.1489 3.94214L35.7871 11.9628L32.1733 18.2144L23.9173 3.93408L31.1489 3.94214ZM14.305 29.0356L7.53031 29.0276L15.2068 15.7563L18.5958 21.6146L14.305 29.0356ZM27.1273 29.0461L12.5972 3.92279L19.8232 3.93085L30.127 21.7548L32.0806 25.1309L34.3469 29.0541L27.1273 29.0461Z" fill="#199976"/>
</svg>

<svg width="41" height="34" fill="none" xmlns="http://www.w3.org/2000/svg"><path d="m38.442 29.057-4.318-7.467 3.617-6.246 2.111-3.653L37.9 8.313l-2.52-4.368-2.138-3.69-4.229-.009-7.235-.018-4.1-.008-7.23-.017-4.242-.01 2.154 3.724 4.66 8.06-9.855 17.047-2.36 4.082h4.364l6.77.005 4.238.006 4.11-7.49 4.433 7.496 4.766.005 7.223.005 4.097.006-2.363-4.082ZM31.149 3.942l4.638 8.02-3.614 6.252-8.256-14.28 7.232.008ZM14.305 29.036l-6.775-.008 7.677-13.272 3.389 5.859-4.291 7.42Zm12.822.01L12.597 3.923l7.226.008 10.304 17.824 1.954 3.376 2.266 3.923-7.22-.008Z" fill="#199976"/></svg>
